assets/azurepublicipprefixes/original.svg

<svg height="18" viewBox="0 0 18 18" width="18" xmlns="http://www.w3.org/2000/svg" xmlns:xlink="http://www.w3.org/1999/xlink"><linearGradient id="a" gradientTransform="matrix(1 0 0 -1 0 -1391.642)" gradientUnits="userSpaceOnUse" x1="5.055" x2="5.055" y1="-1401.772" y2="-1395.802"><stop offset="0" stop-color="#32bedd"/><stop offset=".18" stop-color="#32caea"/><stop offset=".41" stop-color="#32d2f2"/><stop offset=".78" stop-color="#32d4f5"/></linearGradient><linearGradient id="b" x1="9" x2="9" xlink:href="#a" y1="-1404.702" y2="-1398.732"/><linearGradient id="c" x1="12.945" x2="12.945" xlink:href="#a" y1="-1407.632" y2="-1401.662"/><path d="m0 4.16h10.11v5.64a.34.34 0 0 1 -.34.34h-9.43a.34.34 0 0 1 -.34-.34z" fill="url(#a)"/><path d="m.34 2h9.43a.34.34 0 0 1 .34.34v1.82h-10.11v-1.82a.34.34 0 0 1 .34-.34" fill="#767676"/><rect fill="#f2f2f2" height=".87" rx=".17" width="7.39" x="1.36" y="2.65"/><path d="m3.94 7.08h10.12v5.64a.34.34 0 0 1 -.34.34h-9.44a.34.34 0 0 1 -.34-.34z" fill="url(#b)"/><path d="m4.28 4.93h9.43a.34.34 0 0 1 .34.34v1.81h-10.1v-1.81a.34.34 0 0 1 .33-.34" fill="#767676"/><rect fill="#f2f2f2" height=".87" rx=".17" width="7.39" x="5.3" y="5.58"/><path d="m7.89 10.02h10.11v5.64a.34.34 0 0 1 -.34.34h-9.43a.34.34 0 0 1 -.34-.34z" fill="url(#c)"/><path d="m8.23 7.86h9.43a.34.34 0 0 1 .34.34v1.82h-10.11v-1.82a.34.34 0 0 1 .34-.34" fill="#767676"/><g fill="#f2f2f2"><g><circle cx="15.22" cy="12.64" r=".82"/><circle cx="12.98" cy="12.64" r=".82"/><circle cx="10.67" cy="12.64" r=".82"/></g><rect height=".87" rx=".17" width="7.39" x="9.25" y="8.51"/></g></svg>

<svg xmlns="http://www.w3.org/2000/svg" xmlns:xlink="http://www.w3.org/1999/xlink" id="f3b54d7d-7db0-469c-afc7-ffc9b14d26c9" width="18" height="18" data-name="azure-fluent-icons" viewBox="0 0 18 18"><defs><linearGradient id="b6125be5-5e46-486d-bdee-ef1ac2eafdaa" x1="5.055" x2="5.055" y1="-1401.772" y2="-1395.802" gradientTransform="matrix(1 0 0 -1 0 -1391.642)" gradientUnits="userSpaceOnUse"><stop offset="0" stop-color="#32bedd"/><stop offset=".18" stop-color="#32caea"/><stop offset=".41" stop-color="#32d2f2"/><stop offset=".78" stop-color="#32d4f5"/></linearGradient><linearGradient xlink:href="#b6125be5-5e46-486d-bdee-ef1ac2eafdaa" id="adf1cfb9-1a2a-44ee-aac6-05ac5cdb186f" x1="9" x2="9" y1="-1404.702" y2="-1398.732"/><linearGradient xlink:href="#b6125be5-5e46-486d-bdee-ef1ac2eafdaa" id="f0461ac7-cb08-44b4-94c6-8fe04f936f9b" x1="12.945" x2="12.945" y1="-1407.632" y2="-1401.662"/></defs><title>Lighthouse-GS-networking-372</title><path fill="url(#b6125be5-5e46-486d-bdee-ef1ac2eafdaa)" d="M0 4.16h10.11V9.8a.34.34 0 0 1-.34.34H.34A.34.34 0 0 1 0 9.8z"/><path fill="#767676" d="M.34 2h9.43a.34.34 0 0 1 .34.34v1.82H0V2.34A.34.34 0 0 1 .34 2"/><rect width="7.39" height=".87" x="1.36" y="2.65" fill="#f2f2f2" rx=".17"/><path fill="url(#adf1cfb9-1a2a-44ee-aac6-05ac5cdb186f)" d="M3.94 7.08h10.12v5.64a.34.34 0 0 1-.34.34H4.28a.34.34 0 0 1-.34-.34Z"/><path fill="#767676" d="M4.28 4.93h9.43a.34.34 0 0 1 .34.34v1.81H3.95V5.27a.34.34 0 0 1 .33-.34"/><rect width="7.39" height=".87" x="5.3" y="5.58" fill="#f2f2f2" rx=".17"/><path fill="url(#f0461ac7-cb08-44b4-94c6-8fe04f936f9b)" d="M7.89 10.02H18v5.64a.34.34 0 0 1-.34.34H8.23a.34.34 0 0 1-.34-.34Z"/><path fill="#767676" d="M8.23 7.86h9.43a.34.34 0 0 1 .34.34v1.82H7.89V8.2a.34.34 0 0 1 .34-.34"/><g fill="#f2f2f2"><circle cx="15.22" cy="12.64" r=".82"/><circle cx="12.98" cy="12.64" r=".82"/><circle cx="10.67" cy="12.64" r=".82"/></g><rect width="7.39" height=".87" x="9.25" y="8.51" fill="#f2f2f2" rx=".17"/></svg>
